X: 3223
T: O'She's Comical.   a Reel
O: Very Old
%R: reel
B: Niel Gow & Sons "Complete Repository" v.3 p.22 #3
Z: 2021 John Chambers <jc:trillian.mit.edu>
M: C|
L: 1/8
K: A
% - - - - - - - - - -
V: 1 staves=2
A |\
e/e/e e=g Tf2fa | e2ed cAAc | e/e/e e=g f2fa | TB2(d/c/B/A/) B=GGB || e/e/e e=g Tf2fa |
e2ed cAAc | ~c2(.f.d) ~c2ac | TB2(d/c/B/A/) B=GG |]| B | e>f ed TcAc2 | e>f ed cAAc | e>f ed Tc2Ac |
TB2(d/c/B/A/) B=GGB || e>f ed Tc2Ac | e>f ed cAAc | ~d2(.f.d) ~c2(ac) | B2(d/c/B/A/) B=GG |]
% - - - - - - - - - -
V: 2 clef=bass middle=d
z | [a2A2]a2 a2a2 | a2a2 a2a2 | a2a2 a2a2 | =g2g2 g2g2 || [a2A2]a2 a2a2 |
a2a2 a2a2 | d'2d'2 c'2c'2 | b2b2 =g2g |]| z | a2a2 a2a2 | a2a2 a2a2 | a2a2 a2a2 |
=g2g2 g2g2 || a2a2 a2a2 | a2a2 a2c'2 | d'2d'2 c'2c'2 | b2b2 =g2g |]


